X: 4948
T: Breeches Buttoned On, The
R: polka
M: 2/4
K: Edorian
E>F GF|Ee dB|GB AF|EF F2|
E>F GF|Ee dB|GB AF|FE E2:|
Be ef|gf ed|Bd d>e|dc BA|
Be ef|gf ed|GB AF|FE E2:|

